assets/svg/action_wallet_id_key.svg

<svg width="80" height="80" viewBox="0 0 80 80" fill="none" xmlns="http://www.w3.org/2000/svg">
<path d="M53.6775 25.6859H53.2072L53.2135 14.7141C53.215 11.3062 51.89 8.10156 49.4806 5.69062C47.0713 3.28125 43.8681 1.95312 40.4603 1.95312H35.2697C32.4619 1.95312 29.7213 2.74219 27.3432 4.23438L25.3854 5.46406C24.909 5.76376 24.3575 5.92248 23.7947 5.92188C20.7197 5.92188 18.2166 8.42344 18.2166 11.5V25.6859H17.7541C16.54 25.6859 15.4103 26.2313 14.6541 27.1813C13.8978 28.1313 13.6228 29.3563 13.8963 30.5391L14.3244 32.3891C14.7432 34.1937 16.3291 35.4547 18.1807 35.4547H18.6791C19.2541 41.0422 21.8885 46.1797 25.9682 49.9031L26.0307 50.4609C26.1807 51.8172 26.0025 53.2078 25.5135 54.4812C25.4608 54.6179 25.3802 54.7421 25.2769 54.8459C25.1736 54.9498 25.0499 55.031 24.9135 55.0844L20.0687 56.9772C19.7869 57.0873 19.6477 57.4051 19.7579 57.6869C19.8681 57.9686 20.1857 58.1076 20.4674 57.9976L21.9166 57.4313C23.3088 59.9406 25.3072 62 27.7244 63.4062C30.126 64.8047 32.89 65.5438 35.715 65.5438C38.5416 65.5438 41.3041 64.8047 43.7056 63.4062C46.1228 62 48.1213 59.9391 49.5135 57.4313L51.0635 58.0359C51.1291 58.0609 51.1963 58.0734 51.2619 58.0734C51.3893 58.0733 51.5127 58.0287 51.6107 57.9473C51.7087 57.8659 51.7753 57.7528 51.7988 57.6275C51.8223 57.5023 51.8014 57.3728 51.7396 57.2614C51.6778 57.1499 51.579 57.0636 51.4603 57.0172L46.515 55.0844C46.3788 55.0307 46.2551 54.9494 46.1519 54.8456C46.0486 54.7418 45.968 54.6178 45.915 54.4812C45.4247 53.2015 45.2474 51.8231 45.3978 50.4609L45.4603 49.9016C49.5369 46.1797 52.1697 41.0422 52.7447 35.4547H53.2478C55.101 35.4547 56.6869 34.1937 57.1041 32.3891L57.5322 30.5391C57.8056 29.3563 57.5306 28.1328 56.7744 27.1813C56.0181 26.2297 54.8916 25.6859 53.6775 25.6859ZM19.3103 11.5C19.3103 9.02812 21.3213 7.01562 23.7947 7.01562C24.5631 7.01606 25.316 6.79941 25.9666 6.39062L27.9244 5.16094C30.125 3.77883 32.6711 3.04604 35.2697 3.04688H40.4603C43.576 3.04688 46.5056 4.26094 48.7072 6.46406C50.9103 8.66875 52.1213 11.5984 52.1197 14.7141L52.1119 26.2203L52.0666 27.2047L50.3541 26.2234C50.191 26.1298 50.0555 25.9949 49.9611 25.8322C49.8667 25.6696 49.8169 25.4849 49.8166 25.2969V19.4906C49.8166 17.0734 47.851 15.1078 45.4338 15.1078H25.9947C23.5775 15.1078 21.6119 17.0734 21.6119 19.4906V25.2969C21.6119 25.6781 21.4057 26.0344 21.0744 26.2234L19.3557 27.2078L19.3103 26.2188V11.5ZM18.1822 34.3609C16.8416 34.3609 15.6932 33.4484 15.39 32.1422L14.9619 30.2922C14.7635 29.4359 14.9635 28.55 15.5103 27.8625C16.0572 27.175 16.8744 26.7797 17.7541 26.7797H18.2416L18.5838 34.1828C18.5869 34.2422 18.5916 34.3 18.5947 34.3594H18.1822V34.3609ZM22.9447 57.0281L24.8963 56.2656C25.365 56.9656 25.8916 57.6109 26.4697 58.1969C25.8729 58.9375 25.7025 59.9062 25.9447 60.775C24.7744 59.7234 23.7588 58.4656 22.9447 57.0281ZM44.8947 54.8734C45.0306 55.2266 45.2572 55.5359 45.5463 55.7703C43.3197 59.0219 39.6838 60.9469 35.7135 60.9469C31.7432 60.9469 28.1088 59.0219 25.8807 55.7703C26.1697 55.5359 26.3963 55.2266 26.5322 54.8734C27.015 53.6187 27.2291 52.2625 27.1619 50.9203C28.3275 51.8453 29.5932 52.6625 30.9463 53.3516C32.4385 54.1125 34.0744 54.4922 35.7119 54.4922C37.3494 54.4922 38.9853 54.1125 40.4775 53.3516C41.8306 52.6625 43.0963 51.8453 44.2619 50.9203C44.1978 52.2625 44.4135 53.6187 44.8947 54.8734ZM39.9838 52.3781C37.3103 53.7406 34.1197 53.7406 31.4416 52.375C24.5416 48.8594 20.0338 41.8688 19.676 34.1328L19.4135 28.4375L21.6182 27.1734C22.2885 26.7891 22.7057 26.0703 22.7057 25.2984V19.4922C22.7057 17.6781 24.1807 16.2031 25.9947 16.2031H45.4369C47.251 16.2031 48.726 17.6781 48.726 19.4922V25.2984C48.726 26.0719 49.1432 26.7891 49.8135 27.1734L52.0135 28.4344L51.7525 34.1297C51.3947 41.8672 46.8869 48.8594 39.9838 52.3781ZM56.4681 30.2922L56.04 32.1422C55.7369 33.4484 54.59 34.3609 53.2478 34.3609H52.8306C52.8338 34.3 52.84 34.2406 52.8416 34.1797L53.1806 26.7812H53.676C54.5541 26.7812 55.3728 27.1766 55.9197 27.8641C56.4666 28.5516 56.6666 29.4359 56.4681 30.2922Z" fill="#9A9A9A"/>
<path d="M78.1992 65.1304C78.1992 65.803 77.6524 66.3507 76.9789 66.3507H53.3311C53.1482 66.3507 53 66.2025 53 66.0196C53 65.8368 53.1482 65.6885 53.3311 65.6885H76.9789C77.2864 65.6885 77.537 65.4379 77.537 65.1304V40.0309C77.537 39.7234 77.2864 39.4727 76.9789 39.4727H58.3311C58.1482 39.4727 58 39.3245 58 39.1416C58 38.9588 58.1482 38.8105 58.3311 38.8105H76.9789C77.6515 38.8105 78.1992 39.3583 78.1992 40.0309V65.1304Z" fill="#9A9A9A" stroke="#9A9A9A" stroke-width="0.5"/>
<path d="M58.2354 45.795H72.4089C72.5915 45.795 72.74 45.6465 72.74 45.4639C72.74 45.2813 72.5915 45.1328 72.4089 45.1328H58.2354C58.0528 45.1328 57.9043 45.2813 57.9043 45.4639C57.9043 45.6465 58.0528 45.795 58.2354 45.795ZM58.2354 50.54H72.4089C72.5915 50.54 72.74 50.3915 72.74 50.2089C72.74 50.0263 72.5915 49.8778 72.4089 49.8778H58.2354C58.0528 49.8778 57.9043 50.0263 57.9043 50.2089C57.9043 50.3915 58.0528 50.54 58.2354 50.54ZM58.2354 55.286H72.4089C72.5915 55.286 72.74 55.1374 72.74 54.9549C72.74 54.7723 72.5915 54.6238 72.4089 54.6238H58.2354C58.0528 54.6238 57.9043 54.7723 57.9043 54.9549C57.9043 55.1374 58.0528 55.286 58.2354 55.286ZM58.2354 60.031H72.4089C72.5915 60.031 72.74 59.8825 72.74 59.6999C72.74 59.5173 72.5915 59.3688 72.4089 59.3688H58.2354C58.0528 59.3688 57.9043 59.5173 57.9043 59.6999C57.9043 59.8825 58.0528 60.031 58.2354 60.031Z" fill="#9A9A9A" stroke="#9A9A9A" stroke-width="0.5"/>
<path fill-rule="evenodd" clip-rule="evenodd" d="M12 57C5.9251 57 1 61.9251 1 68C1 74.0749 5.9251 79 12 79C18.0749 79 23 74.0749 23 68C23 61.9251 18.0749 57 12 57ZM15.4582 62.9816C15.022 62.5454 14.4303 62.3 13.8129 62.3C13.1961 62.3003 12.6046 62.5455 12.1683 62.9816L10.5825 64.5674C10.1463 65.0036 9.90085 65.5952 9.90085 66.2126L9.90505 66.3542C9.93171 66.7764 10.0723 67.1834 10.3119 67.532L10.3575 67.5938L9.47665 68.4752L9.42444 68.5352C9.34427 68.6399 9.30083 68.7681 9.30084 68.9V69.5H8.70083L8.63063 69.5042C8.48467 69.5214 8.35011 69.5916 8.25245 69.7014C8.15479 69.8112 8.10084 69.953 8.10082 70.1V70.7H7.50081C7.34169 70.7 7.1891 70.7633 7.0766 70.8758L6.82819 71.1242L6.73879 71.2208C6.44958 71.5652 6.30078 71.9744 6.30078 72.3968V73.1L6.30618 73.2062C6.38058 73.8446 6.89239 74.3 7.50081 74.3H8.20402L8.33662 74.2946L8.46863 74.2784C8.85014 74.2221 9.2035 74.0448 9.47665 73.7726L13.0059 70.2428L13.0689 70.2896C13.517 70.5977 14.0587 70.7393 14.6003 70.6898C15.1418 70.6403 15.6489 70.4027 16.0336 70.0184L17.6194 68.4326C17.8354 68.2166 18.0068 67.9601 18.1237 67.6779C18.2406 67.3957 18.3008 67.0932 18.3008 66.7877C18.3008 66.4822 18.2406 66.1797 18.1237 65.8975C18.0068 65.6153 17.8354 65.3588 17.6194 65.1428L15.4582 62.9816ZM14.0979 65.3H14.1099C14.4282 65.3 14.7334 65.4264 14.9585 65.6515C15.1835 65.8765 15.31 66.1817 15.31 66.5C15.31 66.8183 15.1835 67.1235 14.9585 67.3485C14.7334 67.5736 14.4282 67.7 14.1099 67.7H14.0979C13.7797 67.7 13.4744 67.5736 13.2494 67.3485C13.0243 67.1235 12.8979 66.8183 12.8979 66.5C12.8979 66.1817 13.0243 65.8765 13.2494 65.6515C13.4744 65.4264 13.7797 65.3 14.0979 65.3Z" fill="#0166FF"/>
</svg>

<svg xmlns="http://www.w3.org/2000/svg" width="80" height="80" fill="none"><path fill="#9A9A9A" d="M53.678 25.686h-.47l.006-10.972a12.67 12.67 0 0 0-3.733-9.023 12.67 12.67 0 0 0-9.02-3.738H35.27c-2.808 0-5.549.79-7.927 2.281l-1.958 1.23c-.476.3-1.027.458-1.59.458a5.584 5.584 0 0 0-5.578 5.578v14.186h-.463a3.94 3.94 0 0 0-3.1 1.495 3.94 3.94 0 0 0-.758 3.358l.428 1.85a3.94 3.94 0 0 0 3.857 3.066h.498a22.74 22.74 0 0 0 7.29 14.448l.062.558a8.6 8.6 0 0 1-.517 4.02 1.06 1.06 0 0 1-.6.603l-4.845 1.893a.548.548 0 0 0 .398 1.02l1.45-.566c1.392 2.51 3.39 4.569 5.807 5.975a15.9 15.9 0 0 0 7.991 2.138c2.827 0 5.59-.74 7.99-2.138 2.418-1.406 4.416-3.467 5.809-5.975l1.55.605a.547.547 0 0 0 .397-1.019l-4.946-1.933a1.06 1.06 0 0 1-.6-.603 8.6 8.6 0 0 1-.517-4.02l.062-.56a22.74 22.74 0 0 0 7.285-14.446h.503a3.94 3.94 0 0 0 3.856-3.066l.428-1.85a3.94 3.94 0 0 0-.758-3.358 3.93 3.93 0 0 0-3.096-1.495M19.31 11.5a4.49 4.49 0 0 1 4.485-4.484c.768 0 1.521-.217 2.172-.625l1.957-1.23a13.8 13.8 0 0 1 7.346-2.114h5.19c3.116 0 6.046 1.214 8.247 3.417a11.59 11.59 0 0 1 3.413 8.25l-.008 11.506-.045.985-1.713-.982a1.07 1.07 0 0 1-.537-.926V19.49a4.387 4.387 0 0 0-4.383-4.383h-19.44a4.387 4.387 0 0 0-4.382 4.383v5.806c0 .381-.206.737-.538.926l-1.718.985-.046-.99zm-1.128 22.86a2.854 2.854 0 0 1-2.792-2.218l-.428-1.85a2.85 2.85 0 0 1 .548-2.43 2.85 2.85 0 0 1 2.244-1.082h.488l.342 7.403q.006.089.01.176zm4.763 22.668 1.951-.762q.705 1.051 1.574 1.93a2.88 2.88 0 0 0-.525 2.579 14.9 14.9 0 0 1-3-3.747m21.95-2.155c.136.354.362.663.651.897a11.85 11.85 0 0 1-9.832 5.177 11.85 11.85 0 0 1-9.833-5.177c.289-.234.515-.543.651-.897a9.7 9.7 0 0 0 .63-3.953 22.6 22.6 0 0 0 3.784 2.432c1.492.76 3.128 1.14 4.766 1.14s3.273-.38 4.765-1.14a22.6 22.6 0 0 0 3.785-2.432 9.8 9.8 0 0 0 .633 3.953m-4.911-2.495a9.43 9.43 0 0 1-8.542-.003 21.64 21.64 0 0 1-11.766-18.242l-.262-5.696 2.204-1.264a2.17 2.17 0 0 0 1.088-1.875v-5.806a3.29 3.29 0 0 1 3.289-3.289h19.442a3.29 3.29 0 0 1 3.289 3.29v5.805c0 .774.417 1.491 1.087 1.875l2.2 1.261-.26 5.696a21.64 21.64 0 0 1-11.77 18.248m16.484-22.086-.428 1.85a2.85 2.85 0 0 1-2.792 2.219h-.417c.003-.061.009-.12.01-.181l.34-7.399h.495c.878 0 1.697.396 2.244 1.083.547.688.747 1.572.548 2.428"/><path fill="#9A9A9A" stroke="#9A9A9A" stroke-width=".5" d="M78.2 65.13c0 .673-.548 1.22-1.221 1.22H53.33a.331.331 0 1 1 0-.661H76.98c.307 0 .558-.251.558-.559v-25.1a.56.56 0 0 0-.558-.557H58.33a.331.331 0 1 1 0-.663H76.98c.672 0 1.22.548 1.22 1.22z"/><path fill="#9A9A9A" stroke="#9A9A9A" stroke-width=".5" d="M58.235 45.795H72.41a.331.331 0 0 0 0-.662H58.235a.331.331 0 0 0 0 .662Zm0 4.745H72.41a.331.331 0 0 0 0-.662H58.235a.331.331 0 0 0 0 .662Zm0 4.746H72.41a.331.331 0 0 0 0-.662H58.235a.331.331 0 0 0 0 .662Zm0 4.745H72.41a.331.331 0 0 0 0-.662H58.235a.331.331 0 0 0 0 .662Z"/><path fill="#0166FF" fill-rule="evenodd" d="M12 57C5.925 57 1 61.925 1 68s4.925 11 11 11 11-4.925 11-11-4.925-11-11-11m3.458 5.982a2.327 2.327 0 0 0-3.29 0l-1.585 1.585a2.33 2.33 0 0 0-.682 1.646l.004.141c.027.422.167.83.407 1.178l.046.062-.881.881-.053.06a.6.6 0 0 0-.123.365v.6h-.6l-.07.004a.6.6 0 0 0-.53.596v.6h-.6a.6.6 0 0 0-.424.176l-.249.248-.09.097c-.288.344-.437.753-.437 1.176v.703l.005.106c.075.639.586 1.094 1.195 1.094h.703l.133-.005.132-.017a1.8 1.8 0 0 0 1.008-.505l3.529-3.53.063.047a2.33 2.33 0 0 0 2.965-.272l1.585-1.585a2.327 2.327 0 0 0 0-3.29zm-1.36 2.318h.012a1.2 1.2 0 1 1 0 2.4h-.012a1.2 1.2 0 1 1 0-2.4" clip-rule="evenodd"/></svg>
